X:11
T:11b. Fully Engaged Harmony
C:c 2003 Harry Bolick
R:Stomp
O:United States
A:Hastings-On-Hudson, New York
M:3/4
L:1/4
Q:150
K:F
|: "Dm" DDD|DEF| "Gm"G2G| "C" C2 C/2D/2|
"Gm" G2 G | "C" CDE| "F"FFF | F F/2G/2 A|
"Bb" B B/2c/2 d | "C" ccc| "Dm"AFD|
"Am" E3|"Gm" G G/2G/2 D/2D/2 |"C"  C2 C/2C/2  | "F" (F3 |F3):|
"Dm"DDC|DDC |"Bb" DDE |
 "C" F3|CCC|CEG |"Dm"D3|
"Dm"DFD|DDE|"F"F2 E/2F/2 |"G"G3|
"Bb"B2 c/2d/2 |"C" cGE| "Dm" (D3 |D3):|
